X:1
T: Provost Skene's House
C:
R:Strathspey
Q: 128
K:A
M:4/4
L:1/16
|:f4|e3d c3B cA3 A3c|B3A G3F GE3 E3G|F3G A3F E3A c3e|((3B2c2B2) ((3B2c2^d2) eE3 E3f|
((3e2f2e2) ((3e2f2g2) a2A2 A3c|((3c2^d2c2) ((3c2d2^e2) f2F2 F3A|((3A2B2A2) ((3A2B2c2) d3f a3f|((3e2d2c2) ((3d2c2B2) A6 E2|
A3B =c3d ea3 a3_b|ae3 e3=g =fd3 d3f|eG3 G3d =cA3 A3c|((3B2=c2B2) ((3A2G2F2) GE3 E3E|
A3B c3d ea3 a3e|fa3 a3f ea3 a3f|e3d c3B cA3 A3F|((3E2F2E2) ((3D2C2B,2) A,4:|
